X:1709
T:Autumn Woods
M:2/4
L:1/16
N:"collected by Cronin"
B:O'Neill's 1709
R:Hornpipe
Z:"Transcribed by Bob Safranek, rjs@gsp.org"
K:G
   (Bc) | dedc BcBA | GFGD EDB,D | cBce dBgB | AGAB A2(Bc) |
          dedc BcBA | GFGD EDB,D | Ggfe dcBA | G2G2 G2    :|
|: (cB) | ABAG FGAB | cBce defg  | afge fdec | dcde dcBc   |
          dcBd cBAc | BAGF GABc  | dgfe dcBA | G2G2 G2    :|


